icons/evolvere-blue-folders-flat-vivid-dark-fallback/apps/64/preferences-desktop-user.svg

<?xml version="1.0" encoding="UTF-8" standalone="no"?>
<!-- Created with Inkscape (http://www.inkscape.org/) -->

<svg
   xmlns:dc="http://purl.org/dc/elements/1.1/"
   xmlns:cc="http://creativecommons.org/ns#"
   xmlns:rdf="http://www.w3.org/1999/02/22-rdf-syntax-ns#"
   xmlns:svg="http://www.w3.org/2000/svg"
   xmlns="http://www.w3.org/2000/svg"
   xmlns:sodipodi="http://sodipodi.sourceforge.net/DTD/sodipodi-0.dtd"
   xmlns:inkscape="http://www.inkscape.org/namespaces/inkscape"
   width="64"
   height="64"
   id="svg13094"
   version="1.1"
   inkscape:version="0.48.4 r9939"
   sodipodi:docname="preferences-desktop-user.svg">
  <sodipodi:namedview
     id="base"
     pagecolor="#ffffff"
     bordercolor="#666666"
     borderopacity="1.0"
     inkscape:pageopacity="0"
     inkscape:pageshadow="2"
     inkscape:zoom="11.313709"
     inkscape:cx="42.962752"
     inkscape:cy="30.898929"
     inkscape:document-units="px"
     inkscape:current-layer="svg13094"
     showgrid="true"
     inkscape:snap-bbox="true"
     inkscape:bbox-paths="true"
     inkscape:bbox-nodes="true"
     inkscape:snap-bbox-edge-midpoints="true"
     inkscape:snap-bbox-midpoints="true"
     inkscape:object-paths="true"
     inkscape:snap-intersection-paths="true"
     inkscape:object-nodes="true"
     inkscape:snap-smooth-nodes="true"
     inkscape:snap-midpoints="true"
     inkscape:snap-object-midpoints="true"
     inkscape:snap-center="true"
     showguides="true"
     inkscape:guide-bbox="true"
     inkscape:window-width="1920"
     inkscape:window-height="1025"
     inkscape:window-x="-2"
     inkscape:window-y="32"
     inkscape:window-maximized="1"
     inkscape:snap-global="true"
     fit-margin-top="0"
     fit-margin-left="0"
     fit-margin-right="0"
     fit-margin-bottom="0"
     showborder="true"
     inkscape:showpageshadow="false"
     inkscape:snap-page="true">
    <inkscape:grid
       type="xygrid"
       id="grid3075"
       empspacing="5"
       visible="true"
       enabled="true"
       snapvisiblegridlinesonly="true"
       originx="1.6362304e-08px"
       originy="18px" />
  </sodipodi:namedview>
  <defs
     id="defs13096" />
  <metadata
     id="metadata13099">
    <rdf:RDF>
      <cc:Work
         rdf:about="">
        <dc:format>image/svg+xml</dc:format>
        <dc:type
           rdf:resource="http://purl.org/dc/dcmitype/StillImage" />
        <dc:title />
      </cc:Work>
    </rdf:RDF>
  </metadata>
  <path
     inkscape:connector-curvature="0"
     style="color:#000000;fill:#5c3ed2;fill-opacity:1;fill-rule:nonzero;stroke:none;stroke-width:2.28571415;marker:none;visibility:visible;display:inline;overflow:visible;enable-background:accumulate"
     d="m 0,4 0,30 0,28 2,2 30,0 30,0 2,-2 L 64,34 64,4 32,4 0,4 z"
     id="path6498" />
  <path
     inkscape:connector-curvature="0"
     style="color:#000000;fill:#a279ff;fill-opacity:1;fill-rule:nonzero;stroke:none;stroke-width:2.28571415;marker:none;visibility:visible;display:inline;overflow:visible;enable-background:accumulate"
     d="M 2,0 0,1 0,4 32,4 64,4 64,1 62,0 32,0 2,0 z"
     id="path6502" />
  <path
     inkscape:connector-curvature="0"
     style="fill:#b696ff;fill-opacity:1;fill-rule:nonzero"
     d="M 0,3 0,6 2,4 z"
     id="path4298"
     sodipodi:nodetypes="cccc" />
  <path
     d="M 64,6 62,4 64,3 z"
     id="path3028"
     style="fill:#7a58e5;fill-opacity:1"
     inkscape:connector-curvature="0" />
  <g
     id="g3043"
     inkscape:export-filename="folder.png"
     inkscape:export-xdpi="90"
     inkscape:export-ydpi="90"
     transform="translate(-0.62500009,0.082283)" />
  <g
     id="scalable"
     transform="matrix(1.0385892,0,0,1.0385892,1214.7222,1878.8121)"
     inkscape:label="#g3701"
     style="fill:#ffffff" />
  <path
     inkscape:connector-curvature="0"
     style="color:#000000;fill:#dddcef;fill-opacity:1;fill-rule:nonzero;stroke:none;stroke-width:1;marker:none;visibility:visible;display:inline;overflow:visible;enable-background:accumulate"
     d="m 31.999997,16 c -7.09023,0 -8.601458,5.201572 -8.442484,8.283192 l 0.238939,2.62832 c -1.983621,0.02395 -1.023274,5.359378 0.398229,5.176997 0.625792,2.265357 1.785215,3.697855 3.026551,4.778764 0.264834,1.755668 0.167022,2.988708 0.07966,4.539827 -4.846071,3.216168 -13.141603,3.837037 -13.141603,5.176996 0,3.070711 7.146907,5.415933 17.840722,5.415933 10.693729,0 17.840722,-2.34529 17.840722,-5.415933 0,-1.339838 -8.295553,-1.960825 -13.141603,-5.176996 -0.08665,-1.551123 -0.185163,-2.784299 0.07966,-4.539827 1.241203,-1.080891 2.400597,-2.513502 3.026551,-4.778764 1.421396,0.182485 2.381864,-5.151509 0.398229,-5.176997 l 0.238927,-2.62832 C 40.601519,21.20159 39.090155,16 31.999997,16 z"
     id="path3033-0" />
  <g
     id="g3004-9-5">
    <path
       style="font-size:medium;font-style:normal;font-variant:normal;font-weight:normal;font-stretch:normal;text-indent:0;text-align:start;text-decoration:none;line-height:normal;letter-spacing:normal;word-spacing:normal;text-transform:none;direction:ltr;block-progression:tb;writing-mode:lr-tb;text-anchor:start;baseline-shift:baseline;color:#000000;fill:#002654;fill-opacity:0.14592662;fill-rule:nonzero;stroke:none;stroke-width:1;marker:none;visibility:visible;display:inline;overflow:visible;enable-background:accumulate;font-family:Sans;-inkscape-font-specification:Sans"
       d="M 58.53125,10.46875 C 60.060774,12.226027 61,14.496427 61,17 61,22.508143 56.508129,27 51,27 48.496492,27 46.22604,26.060772 44.46875,24.53125 46.304437,26.640296 48.995365,28 52,28 c 5.508129,0 10,-4.491857 10,-10 0,-3.004713 -1.359702,-5.695586 -3.46875,-7.53125 z"
       id="path3785-7-1"
       inkscape:connector-curvature="0" />
    <path
       inkscape:connector-curvature="0"
       style="font-size:medium;font-style:normal;font-variant:normal;font-weight:normal;font-stretch:normal;text-indent:0;text-align:start;text-decoration:none;line-height:normal;letter-spacing:normal;word-spacing:normal;text-transform:none;direction:ltr;block-progression:tb;writing-mode:lr-tb;text-anchor:start;baseline-shift:baseline;color:#000000;fill:#e5eaf0;fill-opacity:1;fill-rule:nonzero;stroke:none;stroke-width:1;marker:none;visibility:visible;display:inline;overflow:visible;enable-background:accumulate;font-family:Sans;-inkscape-font-specification:Sans"
       d="m 51,7 c -5.508143,0 -10,4.491714 -10,10 0,5.508143 4.491857,10 10,10 5.508129,0 10,-4.491857 10,-10 C 61,11.491714 56.508129,7 51,7 z m 0,2 c 4.406503,0 8,3.593371 8,8 0,4.406514 -3.593497,8 -8,8 -4.406514,0 -8,-3.593486 -8,-8 0,-4.406629 3.593486,-8 8,-8 z"
       id="path3003-6-9" />
    <path
       inkscape:connector-curvature="0"
       id="path3827-9-2"
       d="m 51,25 c -4.406515,0 -8,-3.593485 -8,-8 0,-4.406628 3.593485,-8 8,-8 4.406503,0 8,3.593372 8,8 0,4.406515 -3.593497,8 -8,8 z"
       style="font-size:medium;font-style:normal;font-variant:normal;font-weight:normal;font-stretch:normal;text-indent:0;text-align:start;text-decoration:none;line-height:normal;letter-spacing:normal;word-spacing:normal;text-transform:none;direction:ltr;block-progression:tb;writing-mode:lr-tb;text-anchor:start;baseline-shift:baseline;color:#000000;fill:#e4bd23;fill-opacity:1;fill-rule:nonzero;stroke:none;stroke-width:2.28571415;marker:none;visibility:visible;display:inline;overflow:visible;enable-background:accumulate;font-family:Sans;-inkscape-font-specification:Sans" />
    <path
       style="font-size:medium;font-style:normal;font-variant:normal;font-weight:normal;font-stretch:normal;text-indent:0;text-align:start;text-decoration:none;line-height:normal;letter-spacing:normal;word-spacing:normal;text-transform:none;direction:ltr;block-progression:tb;writing-mode:lr-tb;text-anchor:start;baseline-shift:baseline;color:#000000;fill:#340a00;fill-opacity:0.6248881;fill-rule:nonzero;stroke:none;stroke-width:1;marker:none;visibility:visible;display:inline;overflow:visible;enable-background:accumulate;font-family:Sans;-inkscape-font-specification:Sans"
       d="m 50,12 0,2 2,0 0,-2 z m 0,4 0,6 2,0 0,-6 z"
       id="path3812-9-5"
       inkscape:connector-curvature="0"
       sodipodi:nodetypes="cccccccccc" />
  </g>
</svg>

<svg xmlns="http://www.w3.org/2000/svg" viewBox="0 0 64 64"><g color="#000"><path d="m0 4v30 28l2 2h30 30l2-2v-28-30h-32-32" fill="#5c3ed2"/><path d="m2 0l-2 1v3h32 32v-3l-2-1h-30-30" fill="#a279ff"/></g><path d="m0 3v3l2-2z" fill="#b696ff"/><path d="m64 6l-2-2 2-1z" fill="#7a58e5"/><g color="#000"><path d="m32 16c-7.09 0-8.601 5.202-8.442 8.283l.239 2.628c-1.984.024-1.023 5.359.398 5.177.626 2.265 1.785 3.698 3.03 4.779.265 1.756.167 2.989.08 4.54-4.846 3.216-13.14 3.837-13.14 5.177 0 3.071 7.147 5.416 17.841 5.416 10.694 0 17.841-2.345 17.841-5.416 0-1.34-8.296-1.961-13.14-5.177-.087-1.551-.185-2.784.08-4.54 1.241-1.081 2.401-2.514 3.03-4.779 1.421.182 2.382-5.152.398-5.177l.239-2.628c.159-3.082-1.352-8.283-8.442-8.283" fill="#dddcef"/><path d="m58.53 10.469c1.53 1.757 2.469 4.03 2.469 6.531 0 5.508-4.492 10-10 10-2.504 0-4.774-.939-6.531-2.469 1.836 2.109 4.527 3.469 7.531 3.469 5.508 0 10-4.492 10-10 0-3-1.36-5.696-3.469-7.531" fill-opacity=".146" fill="#002654"/><path d="m51 7c-5.508 0-10 4.492-10 10 0 5.508 4.492 10 10 10 5.508 0 10-4.492 10-10 0-5.508-4.492-10-10-10m0 2c4.407 0 8 3.593 8 8 0 4.407-3.593 8-8 8-4.407 0-8-3.593-8-8 0-4.407 3.593-8 8-8" fill="#e5eaf0"/><path d="m51 25c-4.407 0-8-3.593-8-8 0-4.407 3.593-8 8-8 4.407 0 8 3.593 8 8 0 4.407-3.593 8-8 8" fill="#e4bd23"/><path d="m50 12v2h2v-2zm0 4v6h2v-6z" fill-opacity=".625" fill="#340a00"/></g></svg>
